X:1
T:Title
%%score { ( 1 3 ) | 2 }
L:1/8
Q:1/4=100
M:3/4
K:A
V:1 treble nm="Grand Piano"
V:3 treble 
V:2 bass 
V:1
 F2 F2 [E=G]2 | [=GB]>[FA] [FA]4 | D2 D2 [CE]2 | F6 | F2 F2 G2 | [EA]>[EB] [Ec]4 | %6
w: William~Kirkpatrick * *||||||
 cB [FA]2 [^EG]2 | A6 | A2 c2 B2 | [FB]>[FA] [FA]4 | [FA]2 [Fd]2 [Ac]2 | [Ac]>B B4 | B2 e2 B2 | %13
w: |||||||
 A>d d4 | [CE]2 [DF]2 [E=G]2 | [DF]6 |] %16
w: |||
V:2
 [D,A,D]2 [D,A,D]2 [D,A,]2 | [D,D]>[D,D] [D,D]4 | [B,,F,]2 [B,,F,]2 [A,,A,]2 | [D,A,D]6 | %4
 [D,A,D]2 [D,A,D]2 [D,B,D]2 | [C,A,]>[B,,G,] [A,,A,]4 | [C,G,]2 [C,C]2 [C,C]2 | [F,CF]6 | %8
 [A,C=G]2 [A,EG]2 [A,CG]2 | [D,D]>[D,D] [D,D]4 | [D,D]2 [D,A,]2 [F,D]2 | [=G,D]>[G,D=G] [G,DG]4 | %12
 [=G,D=G]2 [G,B,G]2 [^G,D^E]2 | [A,DF]>[A,F] [A,F]4 | [A,,A,]2 [A,,A,]2 [A,,A,]2 | [D,A,]6 |] %16
V:3
 x6 | x6 | x6 | x6 | x6 | x6 | ^E2 z2 z2 | x6 | x6 | x6 | x6 | x6 | x6 | x6 | x6 | x6 |] %16

